X:64
T:siul a ruin
R:double jig
M:6/8
Q:1/4=160
K:D
|: "D"A2E "D"FDD | "F#m"ABc "D"d2A | "D"A2E "D"FDD | "D"FEE "A"E2F    |
|  "D"A2E "D"FDD | "F#m"ABc "D"d2A | "D"d2A "G"BAG | "D"FDD "D"D2F  :|
|: "D"d2e  "D"fdd  | "Em"gee "D"fdd    | "Em"gee  "D"fdd   | "Bm"Bcd "F#m"A2c     |
|  "D"d2e  "D"fdd  | "Em"gee "D"fdd    | "Bm"Bcd  "G"ABG| "D"FDD "D"D2c   :|
